X:1341
T:The Boys of Galway
R:Reel
N:Collected by Early
B:O'Neill's 1341
Z:Transcribed by Trish O'Neil
M:C|
L:1/8
K:C
B|cded cBAG|Addc dcAB|cded cBAG|AcGE EDDB|
cded cBAG|Addc dcAB|cABG AFGE|FDGF ECC||
f|gage dcBcd|eabag agef|gage dcBcd|eaag edde|
gage dcBcd|eabag agef|gefd ecdc|Bcdf ecc|]
